X:182
M:6/8
L:1/8
Q:3/8=110
K:G
|:(f/g/a)f (f/g/a)d|(f/g/a)f a2 d|bag fdf|\
eA^c d2 B|cee caa|Bdd Bgg|bgd (e/f/g)B|Agf g3:|

